svg/u1f5c2.svg

<svg viewBox="0 0 128 128" xmlns="http://www.w3.org/2000/svg">
  <g>
    <path d="M88.24,9.65v-2.3c0-1.85,1.5-3.35,3.35-3.35h22.62c1.85,0,3.35,1.5,3.35,3.35v8.26h0 c1.2,0,2.17,0.97,2.17,2.17V92.1H8.26V18.81c0-1.77,1.43-3.2,3.2-3.2h70.81C85.57,15.61,88.24,12.94,88.24,9.65z" fill="#F3AB47"/>
    <path d="M8.26,34.42v-4.43c0-1.62,1.31-2.94,2.94-2.94h105.6c1.62,0,2.94,1.31,2.94,2.94v4.43H8.26z" fill="#DE7340"/>
    <path d="M78.66,24.78v-2.3c0-1.85-1.5-3.35-3.35-3.35H52.69c-1.85,0-3.35,1.5-3.35,3.35v2.3 c0,3.29-2.67,5.96-5.96,5.96H11.46c-1.77,0-3.2,1.43-3.2,3.2v75.94h111.47V33.94c0-1.77-1.43-3.2-3.2-3.2H84.62 C81.33,30.74,78.66,28.07,78.66,24.78z" fill="#FFCA28"/>
    <path d="M8.26,49.66v-4.54c0-1.62,1.31-2.94,2.94-2.94h105.6c1.62,0,2.94,1.31,2.94,2.94v4.43L8.26,49.66z" fill="#F3AB47"/>
    <path d="M39.76,39.9v-2.3c0-1.85-1.5-3.35-3.35-3.35H13.79c-1.85,0-3.35,1.5-3.35,3.35v8.26h0 c-1.2,0-2.17,0.97-2.17,2.17v73.13c0,1.56,1.27,2.83,2.83,2.83h105.81c1.56,0,2.83-1.27,2.83-2.83V49.06c0-1.77-1.43-3.2-3.2-3.2 H45.72C42.43,45.86,39.76,43.19,39.76,39.9z" fill="#FFE36C"/>
    <path d="M39.76,39.9v-2.3c0-1.85-1.5-3.35-3.35-3.35H13.79c-1.85,0-3.35,1.5-3.35,3.35v8.26h35.29 C42.43,45.86,39.76,43.19,39.76,39.9z" fill="#F44336"/>
    <path d="M78.66,24.78v-2.3c0-1.85-1.5-3.35-3.35-3.35H52.69c-1.85,0-3.35,1.5-3.35,3.35v2.3 c0,3.29-2.67,5.96-5.96,5.96h41.25C81.33,30.74,78.66,28.07,78.66,24.78z" fill="#0288D1"/>
    <path d="M117.56,15.07V7.35c0-1.85-1.5-3.35-3.35-3.35H91.59c-1.85,0-3.35,1.5-3.35,3.35v2.3 c0,2.41-1.44,4.49-3.5,5.42H117.56z" fill="#7CB342"/>
  </g>
</svg>

<svg viewBox="0 0 128 128" xmlns="http://www.w3.org/2000/svg">
  <defs/>
  <path d="M88.24,9.65 L88.24,7.35 C88.24,5.5 89.74,4 91.59,4 L114.21,4 C116.06,4 117.56,5.5 117.56,7.35 L117.56,15.61 L117.56,15.61 C118.76,15.61 119.73,16.58 119.73,17.78 L119.73,92.1 L8.26,92.1 L8.26,18.81 C8.26,17.04 9.69,15.61 11.46,15.61 L82.27,15.61 C85.57,15.61 88.24,12.94 88.24,9.65 Z" fill="#F3AB47"/>
  <path d="M8.26,34.42 L8.26,29.99 C8.26,28.37 9.57,27.05 11.2,27.05 L116.8,27.05 C118.42,27.05 119.74,28.36 119.74,29.99 L119.74,34.42 L8.26,34.42 Z" fill="#DE7340"/>
  <path d="M78.66,24.78 L78.66,22.48 C78.66,20.63 77.16,19.13 75.31,19.13 L52.69,19.13 C50.84,19.13 49.34,20.63 49.34,22.48 L49.34,24.78 C49.34,28.07 46.67,30.74 43.38,30.74 L11.46,30.74 C9.69,30.74 8.26,32.17 8.26,33.94 L8.26,109.88 L119.73,109.88 L119.73,33.94 C119.73,32.17 118.3,30.74 116.53,30.74 L84.62,30.74 C81.33,30.74 78.66,28.07 78.66,24.78 Z" fill="#FFCA28"/>
  <path d="M8.26,49.66 L8.26,45.12 C8.26,43.5 9.57,42.18 11.2,42.18 L116.8,42.18 C118.42,42.18 119.74,43.49 119.74,45.12 L119.74,49.55 L8.26,49.66 Z" fill="#F3AB47"/>
  <path d="M39.76,39.9 L39.76,37.6 C39.76,35.75 38.26,34.25 36.41,34.25 L13.79,34.25 C11.94,34.25 10.44,35.75 10.44,37.6 L10.44,45.86 L10.44,45.86 C9.24,45.86 8.27,46.83 8.27,48.03 L8.27,121.16 C8.27,122.72 9.54,123.99 11.1,123.99 L116.91,123.99 C118.47,123.99 119.74,122.72 119.74,121.16 L119.74,49.06 C119.74,47.29 118.31,45.86 116.54,45.86 L45.72,45.86 C42.43,45.86 39.76,43.19 39.76,39.9 Z" fill="#FFE36C"/>
  <path d="M39.76,39.9 L39.76,37.6 C39.76,35.75 38.26,34.25 36.41,34.25 L13.79,34.25 C11.94,34.25 10.44,35.75 10.44,37.6 L10.44,45.86 L45.73,45.86 C42.43,45.86 39.76,43.19 39.76,39.9 Z" fill="#F44336"/>
  <path d="M78.66,24.78 L78.66,22.48 C78.66,20.63 77.16,19.13 75.31,19.13 L52.69,19.13 C50.84,19.13 49.34,20.63 49.34,22.48 L49.34,24.78 C49.34,28.07 46.67,30.74 43.38,30.74 L84.63,30.74 C81.33,30.74 78.66,28.07 78.66,24.78 Z" fill="#0288D1"/>
  <path d="M117.56,15.07 L117.56,7.35 C117.56,5.5 116.06,4 114.21,4 L91.59,4 C89.74,4 88.24,5.5 88.24,7.35 L88.24,9.65 C88.24,12.06 86.8,14.14 84.74,15.07 L117.56,15.07 Z" fill="#7CB342"/>
</svg>
